src/categories-icons-sprite/categories/svg-cat-electronics.svg

<svg width="31" height="37" viewBox="0 0 31 37" fill="none" xmlns="http://www.w3.org/2000/svg">
<path class="p-03232E" d="M21.2538 4.60952C21.2538 2.06375 19.19 0 16.6443 0H12.735L11.2861 6.05841L21.2538 4.60952Z" fill="#4D98CB"/>
<path class="p-07485E" d="M12.7355 0H8.82631C6.28055 0 4.2168 2.06375 4.2168 4.60952L12.7355 6.05841V0Z" fill="#58ADE5"/>
<path class="p-07485E" d="M25.01 23.7587H22.0049V21.5871H25.01C26.8347 21.5871 28.3193 20.1026 28.3193 18.2778V8.00022H23.9758V5.82861H30.4909V18.2778C30.4909 21.2999 28.0322 23.7587 25.01 23.7587Z" fill="#4D98CB"/>
<path class="p-7ED8F6" d="M18.9493 4.60938L16.6445 27.7809H20.8611C25.4706 23.643 25.4706 4.60938 25.4706 4.60938H18.9493Z" fill="#A1D1FD"/>
<path class="p-BDFDFF" d="M11.2861 29.2298L16.6443 27.7809C18.949 25.7119 18.949 4.60938 18.949 4.60938H12.735L11.2861 29.2298Z" fill="#B9DFFC"/>
<path class="p-BDFDFF" d="M6.52132 4.60938H0C0 4.60938 0 23.643 4.60951 27.7809H8.82604L6.52132 4.60938Z" fill="#B9DFFC"/>
<path class="p-7ED8F6" d="M12.7355 4.60938H6.52148C6.52148 4.60938 6.52148 25.712 8.82621 27.7809L12.7355 29.2298V4.60938Z" fill="#A1D1FD"/>
<path class="p-E30000" d="M20.8608 27.7812H16.6443H12.735L11.2861 32.3907L12.735 37.0002H23.9338L20.8608 27.7812Z" fill="#65B3E7"/>
<path class="p-FF6426" d="M8.82563 27.7812H4.6091L1.53613 37.0002H12.7349V27.7812H8.82563Z" fill="#A1D1FD"/>
<path class="p-E1EBF0" d="M10.4972 31.3047H10.3641C9.76445 31.3047 9.27832 31.7908 9.27832 32.3905C9.27832 32.9902 9.76445 33.4763 10.3641 33.4763H10.4972C11.0969 33.4763 11.583 32.9902 11.583 32.3905C11.583 31.7908 11.0969 31.3047 10.4972 31.3047Z" fill="#58ADE5"/>
<path class="p-B4D2D7" d="M15.1066 31.3047H14.9735C14.3738 31.3047 13.8877 31.7908 13.8877 32.3905C13.8877 32.9902 14.3738 33.4763 14.9735 33.4763H15.1066C15.7063 33.4763 16.1924 32.9902 16.1924 32.3905C16.1924 31.7908 15.7063 31.3047 15.1066 31.3047Z" fill="#4D98CB"/>
</svg>

<svg width="31" height="37" fill="none" xmlns="http://www.w3.org/2000/svg"><path class="p-03232E" d="M21.254 4.61A4.61 4.61 0 0016.644 0h-3.909l-1.449 6.058 9.968-1.448z" fill="#4D98CB"/><path class="p-07485E" d="M12.736 0h-3.91a4.61 4.61 0 00-4.61 4.61l8.52 1.448V0z" fill="#58ADE5"/><path class="p-07485E" d="M25.01 23.759h-3.005v-2.172h3.005a3.313 3.313 0 003.31-3.31V8h-4.344V5.83h6.515v12.449a5.487 5.487 0 01-5.481 5.48z" fill="#4D98CB"/><path class="p-7ED8F6" d="M18.95 4.61l-2.305 23.17h4.216c4.61-4.137 4.61-23.17 4.61-23.17h-6.522z" fill="#A1D1FD"/><path class="p-BDFDFF" d="M11.286 29.23l5.358-1.45C18.95 25.713 18.95 4.61 18.95 4.61h-6.214l-1.449 24.62zM6.521 4.61H0s0 19.033 4.61 23.17h4.216L6.521 4.61z" fill="#B9DFFC"/><path class="p-7ED8F6" d="M12.736 4.61H6.52s0 21.102 2.305 23.17l3.91 1.45V4.61z" fill="#A1D1FD"/><path class="p-E30000" d="M20.86 27.781h-8.125l-1.449 4.61L12.735 37h11.199l-3.073-9.22z" fill="#65B3E7"/><path class="p-FF6426" d="M8.826 27.781H4.609l-3.073 9.22h11.199v-9.22h-3.91z" fill="#A1D1FD"/><path class="p-E1EBF0" d="M10.497 31.305h-.133a1.086 1.086 0 100 2.171h.133a1.086 1.086 0 100-2.171z" fill="#58ADE5"/><path class="p-B4D2D7" d="M15.107 31.305h-.133a1.086 1.086 0 100 2.171h.133a1.086 1.086 0 100-2.171z" fill="#4D98CB"/></svg>
